X: 931
T: Stone's Rag
B: jims roots
M:4/4
L:1/8
Q: 1/4=100
K:C
V:1 
|: "C"cdeg- gage | ageg- gage | "F"FGAc- cdcA |
dcAc- cdcA | "G7"BdBG- G^FGA | BdBG- G^FGB |
[1 "C"cdeg- gage | "G7"g4 zGAB :| [2 "G7"gega- age2 | "C"c6 g2 ||
"A7"agea- age2 | agea- age2 | "D7"dcAd- dcA2 | dcAd- dcA2 |
"G7"BdBG- G^FGA | BdBG- G^FGB | "C"cdeg- gage | g4 "E7"^g4 ||
"A7"agea- age2 |  agea- age2 | "D7"dcAd- dcA2 | dcAd- dcA2 |
"F"c'4 "F#dim"a4 | "C"gage- "A7"edcA | "D7"GAce- "G7"ecd2 | "C"c8 |]
% abcbook-tune_id 6298c2878dc7bfaa988e1399


% abcbook-boost 0
% abcbook-tablature 
% abcbook-transpose 
% abcbook-lastupdated 1654178440915
% abcbook-soundfonts 
% abcbook-repeats 1


